X: 10873
T: Drogheda Bay
R: reel
M: 4/4
K: Edorian
|:BGEF G2 BG|G2 BG FA D2|BGEF GABd|1 g2fg e2dc:|2 g2fg e3f||
|:g3a bgag|fgag fdd2|1 g3a bgag|fedf e3f:|2 g3e f3d|edef gedc||

